.local/share/icons/Gruvbox-Plus-Dark/actions/16/password-generator.svg

<svg width="16" height="16" version="1.1" xmlns="http://www.w3.org/2000/svg">
  <defs>
    <style id="current-color-scheme" type="text/css">.ColorScheme-Text { color:#ebdbb2; } .ColorScheme-Highlight { color:#458588; }</style>
  </defs>
  <path class="ColorScheme-Text" d="m2.5 1c-0.831 0-1.5 0.669-1.5 1.5v11c0 0.831 0.669 1.5 1.5 1.5h11c0.831 0 1.5-0.669 1.5-1.5v-11c0-0.831-0.669-1.5-1.5-1.5zm9 2c0.828 0 1.5 0.6716 1.5 1.5s-0.672 1.5-1.5 1.5-1.5-0.6716-1.5-1.5 0.672-1.5 1.5-1.5zm-7 7c0.8284 0 1.5 0.672 1.5 1.5s-0.6716 1.5-1.5 1.5-1.5-0.672-1.5-1.5 0.6716-1.5 1.5-1.5z" fill="currentColor"/>
</svg>

<svg xmlns="http://www.w3.org/2000/svg" width="16" height="16" version="1.1">
 <defs>
  <style id="current-color-scheme" type="text/css">
   .ColorScheme-Text { color:#565656; } .ColorScheme-Highlight { color:#4285f4; }
  </style>
 </defs>
 <path style="fill:currentColor" class="ColorScheme-Text" d="M 2.5,1 C 1.669,1 1,1.669 1,2.5 V 13.5 C 1,14.331 1.669,15 2.5,15 H 13.5 C 14.331,15 15,14.331 15,13.5 V 2.5 C 15,1.669 14.331,1 13.5,1 Z M 11.5,3 C 12.328,3 13,3.6716 13,4.5 13,5.3284 12.328,6 11.5,6 10.672,6 10,5.3284 10,4.5 10,3.6716 10.672,3 11.5,3 Z M 4.5,10 C 5.3284,10 6,10.672 6,11.5 6,12.328 5.3284,13 4.5,13 3.6716,13 3,12.328 3,11.5 3,10.672 3.6716,10 4.5,10 Z"/>
</svg>
